X: 16706
T: Happy Ruinous House, The
R: slip jig
M: 9/8
K: Dmajor
[M:4/4] A2dA efdA-|AdAe2fdc|A2dA efdg|1 BfBe2f dc:|2 BfBe2fdB||
|:G2BG cded-|dAda2gfd|1 G2BG cded-|dABd2efd:|2 G2BG cded- dABd5||

